X: 42916
T: Will You Come To The Bow'r?
R: reel
M: 4/4
K: Gmajor
Bc|:d2dd d2dd|dgfe d2zd|dccc cBz B|1 dc zA|G2Bc:|2 dczF G2z2||
|:GBBB GBBB|dc2c cB2z|GBBB GBBB|dcAF G2:|

